X:2312
T:She Shoh yn Laa
C:Traditional
O:Isle of Man
Z:Collected by Mona Douglas
B:Kiaull Vannin #312
N:See also KV 45 and Carvalyn Gailckagh, Moore et al., p.115
M:3/4 
L:1/4 
K:G 
G/A/ Bc|d2 c|B A2|G3 |G/A/ Bc|d2 c/B/|A3-|A3 |
AB c|d2 G|G2 D|E3 |DEF|A3/2G/ F|G3-|G3||

